Suru++-Ubuntu/apps/symbolic/stacer-symbolic.svg

<svg width="16" height="16" version="1.1" viewBox="0 0 16 16" xmlns="http://www.w3.org/2000/svg">
 <path d="m8.7792969 1.9980469c-0.051556-0.0055494-0.1028131 0.0098601-0.1425781 0.0449219-0.0397651 0.0350898-0.0633921 0.085636-0.0683594 0.140625l-0.2265625 2.4863281c-0.010353 0.1144062 0.0690353 0.2174449 0.1757812 0.2285156 0.6183579 0.0642099 1.2136499 0.2429923 1.7714839 0.53125 0.026537 0.0137332 0.056997 0.0195312 0.085938 0.0195313 0.021595 0 0.041689-0.0039553 0.0625-0.0117188 0.048602-0.0181895 0.088975-0.0557489 0.111328-0.1054688l1.011719-2.25c0.046615-0.1035317 0.006784-0.2274556-0.089844-0.2773437-0.847327-0.4377817-1.7533594-0.7091627-2.6914061-0.8066406zm-1.8632813 0.0371093c-0.9335499 0.1357348-1.828228 0.4449011-2.6601562 0.9179688-0.0947197 0.0538679-0.1302746 0.1796521-0.0800782 0.28125l1.0917969 2.2070312c0.0348761 0.070488 0.1023058 0.1093751 0.171875 0.109375 0.0306931 0 0.0608762-0.0069576 0.0898438-0.0234374 0.5480305-0.3115762 1.1372292-0.5141095 1.7519531-0.6035157 0.1062492-0.0154429 0.180421-0.1204452 0.1660156-0.234375l-0.3125-2.4765625c-0.0144053-0.1139017-0.1127622-0.1930651-0.21875-0.1777344zm5.9863284 1.796875c-0.051216 0.0056895-0.098389 0.0333467-0.13086 0.0761719l-1.470703 1.9375c-0.032471 0.0428533-0.046323 0.0974389-0.041015 0.1523438 0.005255 0.0549049 0.030338 0.1057594 0.070312 0.140625 0.48288 0.4209375 0.888336 0.922558 1.207031 1.4941406 0.036393 0.0651908 0.101877 0.1015625 0.167969 0.1015625 0.033909 0 0.06842-0.0092856 0.09961-0.0292969l2-1.28125c0.044157-0.0283353 0.075289-0.0733935 0.08789-0.1269531 0.012549-0.0535596 0.004973-0.1107814-0.021484-0.1582031-0.481886-0.8642126-1.096362-1.6254218-1.826172-2.2617188-0.039974-0.0348095-0.091153-0.0504432-0.142578-0.0449219zm-10.041016 0.2070313c-0.0516344-0.0035314-0.101958 0.0143461-0.140625 0.0507813-0.7068553 0.6660896-1.2937579 1.4508255-1.7441406 2.3339843-0.02467994 0.0484587-0.03010878 0.1072133-0.015625 0.1601563 0.01448378 0.052971 0.0465939 0.0965894 0.0917969 0.1230468l2.0449218 1.1992188c0.0295689 0.0173487 0.0622465 0.0253906 0.09375 0.0253906 0.0686803 0 0.1346537-0.0402043 0.1699219-0.109375 0.2976756-0.5837463 0.6867115-1.1023563 1.1542969-1.5429687 0.0387454-0.0363791 0.0611851-0.087449 0.0644531-0.1425781 0.0033203-0.0550731-0.0128878-0.1108919-0.046875-0.1523438l-1.5390625-1.875c-0.0339872-0.0414519-0.0813872-0.0667531-0.1328125-0.0703125zm12.53125 3.7910156-2.224609 0.7460938c-0.102354 0.0343611-0.159006 0.1520491-0.126953 0.2617187 0.159583 0.5461341 0.240234 1.1164148 0.240234 1.6953124 0 0.08523-0.001833 0.172015-0.005859 0.265625-0.002406 0.055129 0.016062 0.109611 0.050781 0.150391 0.034693 0.040807 0.08334 0.065837 0.134766 0.068359l2.328124 0.115234c0.003085 1.41e-4 0.00478 0 0.007813 0 0.103112 0 0.188497-0.087671 0.193359-0.199218 0.005987-0.138874 0.009766-0.269869 0.009766-0.400391-5.2e-5 -0.8748347-0.123089-1.7380681-0.365234-2.5664061-0.032105-0.1097257-0.139939-0.171164-0.242188-0.1367188zm-10.779297 0.2402344c-0.0422389 0.0052621-0.0828942 0.0253397-0.1152343 0.0585937-0.0647326 0.0664521-0.0793058 0.1711618-0.0371094 0.2558594l1.7207031 3.4570314c-0.0063268 0.066592-0.0097656 0.1353-0.0097656 0.203125 0 0.521526 0.1892265 1.010155 0.5332031 1.378906 0.3440028 0.368779 0.8006218 0.572266 1.2871094 0.572266s0.9450859-0.203543 1.2890625-0.572266c0.3440028-0.368751 0.5332031-0.85738 0.5332031-1.378906 0-0.521527-0.1892265-1.012108-0.5332031-1.38086-0.3435142-0.368255-0.8013802-0.57172-1.2871094-0.572265h-0.0019531c-0.0328398 4.4e-5 -0.0670704 8.4e-5 -0.0996094 0.001953l-3.1542969-1.9941406c-0.0386016-0.0244536-0.082761-0.034559-0.125-0.0292969zm-4.0957031 0.0664063c-0.04969974-0.0144059-0.1037574-0.0079353-0.1484375 0.0195312-0.04468009 0.0274665-0.0763273 0.0736738-0.08984374 0.1269531-0.18481194 0.7306639-0.27929688 1.4873854-0.27929688 2.2499999 0 0.130522 0.003726361 0.261517 0.009765625 0.400391 0.00483664 0.111575 0.090195151 0.199219 0.19335938 0.199218 0.0030327 0 0.00673292 1.69e-4 0.00976562 0l2.3261719-0.115234c0.0514252-0.002522 0.1001248-0.02758 0.1347656-0.068359 0.0346931-0.04078 0.0531865-0.095262 0.0507813-0.150391-0.0040523-0.093638-0.0058594-0.180423-0.0058594-0.265625 0-0.505046 0.0616581-1.0044598 0.1835938-1.486328 0.0280002-0.1109309-0.0332408-0.2257303-0.1367188-0.2558594l-2.2480469-0.6542968z" fill="#808080"/>
</svg>

<svg xmlns="http://www.w3.org/2000/svg" width="16" height="16" version="1.1" viewBox="0 0 16 16">
 <path fill="#808080" d="M 8.7792969 1.9980469 C 8.7277409 1.9924975 8.6764838 2.007907 8.6367188 2.0429688 C 8.5969537 2.0780586 8.5733267 2.1286048 8.5683594 2.1835938 L 8.3417969 4.6699219 C 8.3314439 4.7843281 8.4108322 4.8873668 8.5175781 4.8984375 C 9.135936 4.9626474 9.731228 5.1414298 10.289062 5.4296875 C 10.315599 5.4434207 10.346059 5.4492187 10.375 5.4492188 C 10.396595 5.4492188 10.416689 5.4452635 10.4375 5.4375 C 10.486102 5.4193105 10.526475 5.3817511 10.548828 5.3320312 L 11.560547 3.0820312 C 11.607162 2.9784995 11.567331 2.8545756 11.470703 2.8046875 C 10.623376 2.3669058 9.7173436 2.0955248 8.7792969 1.9980469 z M 6.9160156 2.0351562 C 5.9824657 2.170891 5.0877876 2.4800573 4.2558594 2.953125 C 4.1611397 3.0069929 4.1255848 3.1327771 4.1757812 3.234375 L 5.2675781 5.4414062 C 5.3024542 5.5118942 5.3698839 5.5507813 5.4394531 5.5507812 C 5.4701462 5.5507812 5.5003293 5.5438236 5.5292969 5.5273438 C 6.0773274 5.2157676 6.6665261 5.0132343 7.28125 4.9238281 C 7.3874992 4.9083852 7.461671 4.8033829 7.4472656 4.6894531 L 7.1347656 2.2128906 C 7.1203603 2.0989889 7.0220034 2.0198255 6.9160156 2.0351562 z M 12.902344 3.8320312 C 12.851128 3.8377207 12.803955 3.8653779 12.771484 3.9082031 L 11.300781 5.8457031 C 11.26831 5.8885564 11.254458 5.943142 11.259766 5.9980469 C 11.265021 6.0529518 11.290104 6.1038063 11.330078 6.1386719 C 11.812958 6.5596094 12.218414 7.0612299 12.537109 7.6328125 C 12.573502 7.6980033 12.638986 7.734375 12.705078 7.734375 C 12.738987 7.734375 12.773498 7.7250894 12.804688 7.7050781 L 14.804688 6.4238281 C 14.848845 6.3954928 14.879977 6.3504346 14.892578 6.296875 C 14.905127 6.2433154 14.897551 6.1860936 14.871094 6.1386719 C 14.389208 5.2744593 13.774732 4.5132501 13.044922 3.8769531 C 13.004948 3.8421436 12.953769 3.8265099 12.902344 3.8320312 z M 2.8613281 4.0390625 C 2.8096937 4.0355311 2.7593701 4.0534086 2.7207031 4.0898438 C 2.0138478 4.7559334 1.4269452 5.5406693 0.9765625 6.4238281 C 0.95188256 6.4722868 0.94645372 6.5310414 0.9609375 6.5839844 C 0.97542128 6.6369554 1.0075314 6.6805738 1.0527344 6.7070312 L 3.0976562 7.90625 C 3.1272251 7.9235987 3.1599027 7.9316406 3.1914062 7.9316406 C 3.2600865 7.9316406 3.3260599 7.8914363 3.3613281 7.8222656 C 3.6590037 7.2385193 4.0480396 6.7199093 4.515625 6.2792969 C 4.5543704 6.2429178 4.5768101 6.1918479 4.5800781 6.1367188 C 4.5833984 6.0816457 4.5671903 6.0258269 4.5332031 5.984375 L 2.9941406 4.109375 C 2.9601534 4.0679231 2.9127534 4.0426219 2.8613281 4.0390625 z M 15.392578 7.8300781 L 13.167969 8.5761719 C 13.065615 8.610533 13.008963 8.728221 13.041016 8.8378906 C 13.200599 9.3840247 13.28125 9.9543054 13.28125 10.533203 C 13.28125 10.618433 13.279417 10.705218 13.275391 10.798828 C 13.272985 10.853957 13.291453 10.908439 13.326172 10.949219 C 13.360865 10.990026 13.409512 11.015056 13.460938 11.017578 L 15.789062 11.132812 C 15.792147 11.132953 15.793842 11.132812 15.796875 11.132812 C 15.899987 11.132812 15.985372 11.045141 15.990234 10.933594 C 15.996221 10.79472 16 10.663725 16 10.533203 C 15.999948 9.6583683 15.876911 8.7951349 15.634766 7.9667969 C 15.602661 7.8570712 15.494827 7.7956329 15.392578 7.8300781 z M 4.6132812 8.0703125 C 4.5710423 8.0755746 4.530387 8.0956522 4.4980469 8.1289062 C 4.4333143 8.1953583 4.4187411 8.300068 4.4609375 8.3847656 L 6.1816406 11.841797 C 6.1753138 11.908389 6.171875 11.977097 6.171875 12.044922 C 6.171875 12.566448 6.3611015 13.055077 6.7050781 13.423828 C 7.0490809 13.792607 7.5056999 13.996094 7.9921875 13.996094 C 8.4786751 13.996094 8.9372734 13.792551 9.28125 13.423828 C 9.6252528 13.055077 9.8144531 12.566448 9.8144531 12.044922 C 9.8144531 11.523395 9.6252266 11.032814 9.28125 10.664062 C 8.9377358 10.295807 8.4798698 10.092342 7.9941406 10.091797 L 7.9921875 10.091797 C 7.9593477 10.091841 7.9251171 10.091881 7.8925781 10.09375 L 4.7382812 8.0996094 C 4.6996796 8.0751558 4.6555202 8.0650504 4.6132812 8.0703125 z M 0.51757812 8.1367188 C 0.46787838 8.1223129 0.41382072 8.1287835 0.36914062 8.15625 C 0.32446053 8.1837165 0.29281332 8.2299238 0.27929688 8.2832031 C 0.094484939 9.013867 -7.4014868e-17 9.7705885 0 10.533203 C 0 10.663725 0.003726361 10.79472 0.009765625 10.933594 C 0.014602265 11.045169 0.099960776 11.132813 0.203125 11.132812 C 0.2061577 11.132812 0.20985792 11.132981 0.21289062 11.132812 L 2.5390625 11.017578 C 2.5904877 11.015056 2.6391873 10.989998 2.6738281 10.949219 C 2.7085212 10.908439 2.7270146 10.853957 2.7246094 10.798828 C 2.7205571 10.70519 2.71875 10.618405 2.71875 10.533203 C 2.71875 10.028157 2.7804081 9.5287432 2.9023438 9.046875 C 2.930344 8.9359441 2.869103 8.8211447 2.765625 8.7910156 L 0.51757812 8.1367188 z"/>
</svg>
